X: 1
%%pageheight 11in
T:The Nutting Girl
M:4/4
C:
S:Bacon (Jour EFDS, 1928)
N:iteration 2 with stepping
%:NoTeX
%:
A:Bampton
O:English
R:Reel
P:A.AB.(CB)2
K:G
I:speed 400
%%%%%%%%%%%%%%%%%%%%%%%%%%%%%%%%%%%%%%%%
P:A0 OY
   B>A |\
w: bar~0 |
   G2  G>A   B>A   G>B | d2    (3cdc   A2  G>F |\
w: bar~1               | bar~2                 |
   G2  B>c   d2    g2  | d4            d3    B |
w: bar~3               | bar~4                 |
   c>d e>c   A2    B>c | B>c   d>B     G2  A>B |\
w: bar~5               | bar~6                 |
   c2  (3AcA F2    D2  | G4            G2      ||
w: bar~7               | bar~8                 |
w:                     | L             r
w:                     | HC            *
%%%%%%%%%%%%%%%%%%%%%%%%%%%%%%%%%%%%%%%%
P:A1 FU (style 7 on Bacon p. 49)
   B>A |\
w: bar~0 |
w: hr *
   G2  G>A   B>A   G>B | d2    (3cdc   A2  G>F |\
w: bar~1               | bar~2                 |
w: l  hl *   r *  hr *   l    hl * *   r  hr *
w: 2                   | 2                     |
   G2  B>c   d2    g2  | d4            d2- d B |
w: bar~3               | bar~4                 |
w: l   (l) * r     (r)   L             r   r *
w: bs                  | HC                    |
   c>d e>c   A2    B>c | B>c   d>B     G2  A>B |\
w: bar~5               | bar~6                 |
w: l  hl *   r *  hr *   l    hl * *   r  hr *
w: 2                   | 2                     |
   c2  (3AcA F2    D2  | G4            G2      ||
w: bar~7               | bar~8                 |
w: l   (l) * * r   (r)   L             r
w: bs                  | HC                    |
%%%%%%%%%%%%%%%%%%%%%%%%%%%%%%%%%%%%%%%%
%%newpage
P:B Jig
   B>A |\
w: bar~0 |
w: hr *
   G2  g2    g>e   f>g | (3fgf   d2    d2  B>c |\
w: bar~1               | bar~2                 |
w: l   r     l *   hl *  r * *   hr    l  hl *
w: css(lt)             |                       |
   d2  e>f   (3gag f>e | f2-     f2    f3    e |
w: bar~3               | bar~4                 |
w: r   l *   r * * hr *  l       hl    r     hr
w: css(rt)             |                       |
   d2  g2    g3      f | e2      d2    d3    B |\
w: bar~5               | bar~6                 |
w: l   r     l      hl   r     l       r    hr
w: oss(lt)             | oss(rt)               |
   A2  B2    c2    d2  | e>f     g>e   d>B c>A |
w: bar~7               | bar~8                 |
w: L   *     r    hr     L *     * *   r * hr *
w: HC                  | HC                    |
   G2  G>A   B>A   G>B | d2      (3cdc A2  G>F |\
w: bar~9               | bar~10                |
w: l   hl *  r *   hr *  l      hl * * r  hr *
w: 2                   | 2                     |
   G2  B>c   d2    g2  | d4            d3    B |
w: bar~11              | bar~12                |
w: l   (l) * r     (r)   l             R     *
w: bs                  | SC                    |
   c>d e>c   A2    B>c | B>c     d>B   G2  A>B |\
w: bar~13              | bar~14                |
w: l * hl *  r    hr *   l *    hl *   r  hr *
w: 2                   | 2                     |
   c2  (3AcA F2    D2  | G4            G2      ||
w: bar~15              | bar~16                |
w: l   (l) * * r   (r)   l             R
w: bs                  | SC                    |
%%%%%%%%%%%%%%%%%%%%%%%%%%%%%%%%%%%%%%%%
%%newpage
P:C1 UC
M:2/4
L:1/8
   B3 A |\
w: bar~0 |
w: r  ft
M:4/4
   G2- G2 G3  A  | B2- B A G3 B | d2- d2 c2- c2 |\
w: bar~1         | bar~2        | bar~3         |
w: A   l  l   ft   A   l * l  ft  A   l  l   ft
w: UC            | UC           | UC            |
   A2- A2 F2- F2 | G2- G2  B3 c | d2- d2 g2- g2 | d4 d2- d2 |\
w: bar~4         | bar~5        | bar~6         | bar~7     |
w: A   l  l   ft   A   l   l  ft  A   l  l   ft   A   l  l
w: UC            | UC           | UC            | UC        |
M:2/4
L:1/8
   d2 B2 |\
w: bar~7a |
w: r  r
M:4/4
   c>d e>c   A2    B>c | B>c   d>B     G2  A>B |\
w: bar~8               | bar~9                 |
w: l * hl *  r    hr *   l *   * *     R     *
w: 2                   | SC                    |
   c2  (3AcA F2    D2  | G4            G2      ||
w: bar~10              | bar~11                |
w: l   (l) * * r   (r)   l             r
w: bs                  | SC                    |
%%%%%%%%%%%%%%%%%%%%%%%%%%%%%%%%%%%%%%%%
P:C2 HC
M:2/4
L:1/8
   B3 A |\
w: bar~0 |
w: L  *
M:4/4
   G2- G2 G3 A | B2- B A G3 B | d2- d2 c4 |\
w: bar~1       | bar~2        | bar~3     |
w: r   r  L  *   r   r * L  *   r   r  L
w: HC          | HC           | HC        |
   A2- A2 F4   | G2- G2  B3 c | d2- d2 g4 | d2- d2 d4 |\
w: bar~4       | bar~5        | bar~6     | bar~7     |
w: r   r  L      r   r   L  *   r   r  L    r   r  L
w: HC          | HC           | HC        | HC        |
M:2/4
L:1/8
   d2 B2 |\
w: bar~7a |
w: r  r
M:4/4
   c>d e>c   A2    B>c | B>c   d>B     G2  A>B |\
w: bar~8               | bar~9                 |
w: l * hl *  r    hr *   l *   * *     R     *
w: 2                   | SC                    |
   c2  (3AcA F2    D2  | G4            G2      ||
w: bar~10              | bar~11                |
w: l   (l) * * r   (r)   l             r
w: bs                  | SC                    |
%%%%%%%%%%%%%%%%%%%%%%%%%%%%%%%%%%%%%%%%
